X: 30181
T: DEMOCRATIC MARCH
C:
%R: march
B: Elias Howe "The Musician's Companion" Part 3 1844 p.18 #1
S: http://imslp.org/wiki/The_Musician's_Companion_(Howe,_Elias)
S: https://archive.org/stream/firstthirdpartof03howe/#page/66/mode/1up
Z: 2016 John Chambers <jc:trillian.mit.edu>
M: C
L: 1/8
K: D
% - - - - - - - - - - - - - - - - - - - - - - - - -
V: 1 staves=3
D>E |\
F2F>F F2A2 | E2E>E E2F>G | G2G>G GBAG | F2F>F F2F>G |\
A2A>A A2c2 | B2B>B B2d2 | c2e2 B2e2 | A2a>a a2 :|
|: z!p!D |\
G2G>G G2A2 | (B4 G2)z2 | E4 F4 | E2A>A A2B>c |!f!\
d2d>d d2f2 | d^def gabg | f2a2 f2a2 | d2d>d d2 :|
% - - - - - - - - - - - - - - - - - - - - - - - - -
V: 2
z2 |\
D2D>D D2F2 | C2C>C C2z2 | E2E>E EGFE | D2D>D D2z2 |\
E2E>E E2E2 | F2F>F F2F2 | A2A2 ^G2G2 | A2c>c c2 :|
|: z2 |\
E2E>E E2F2 | (G4 E2)z2 | C4 D4 | C2E>E E2z2 |\
A2A>A A2A2 | F2cd efgf | d2d2 c2c2 | d2F>F F2 :|
% - - - - - - - - - - - - - - - - - - - - - - - - -
V: 3 clef=bass middle=d
z2 |\
d2d2 d2z2 | A2A2 A2z2 | A2A2 A2z2 | d2d2 d2z2 |\
c2c2 c2z2 | d2d2 d2z2 | e4 e4 | A2a>a A2 :|
|: z2 |\
e2e>e e2f2 | (g4 e2)z2 | A2A2 d2d2 | A2A2 A2z2 |\
[A2F2][AF]>[AF] [A2F2][A2F2] | G2G2 G2G2 | A2A2 A2A2 | d2d>d d2 :|
% - - - - - - - - - - - - - - - - - - - - - - - - -
